app/img/_src/main/services/services-2.svg

<svg width="90" height="90" viewBox="0 0 90 90" fill="none" xmlns="http://www.w3.org/2000/svg">
<path d="M55.3915 20.707C52.5774 21.4741 51.1463 22.3615 49.4892 23.3889C48.437 24.0653 47.3457 24.6789 46.2209 25.2264C47.8828 25.9348 49.3646 26.3588 50.7176 26.5134C51.7504 25.9959 52.7554 25.4247 53.7284 24.802C55.3855 23.7746 56.8167 22.8873 59.6308 22.1201C59.8859 22.0505 60.1388 21.9861 60.3896 21.9268L60.5253 20.0187C58.7898 19.9995 57.0606 20.2313 55.3915 20.707Z" fill="#D4E1F4"/>
<path d="M35.7467 75.0997C35.7451 75.0837 35.7397 75.0313 35.7319 74.9468C32.9481 69.9382 32.3207 62.5881 32.7704 56.7058C32.8092 56.1987 32.8488 55.7272 32.8859 55.2871C33.1239 52.4579 33.2675 50.7501 32.3105 49.205C31.3894 47.717 29.5121 46.5472 25.9081 44.6393C23.9217 43.5874 22.4042 41.477 21.6366 38.6966C20.8824 35.8658 20.9471 32.879 21.8231 30.0834C22.6994 27.3421 24.3109 25.1349 26.4837 23.7007C29.0213 22.0259 32.2283 21.4312 36.016 21.9336C36.1496 21.9512 36.2851 21.9735 36.4203 21.9974C34.84 21.2848 33.2279 20.7132 31.7758 20.5209C27.9881 20.0183 24.7813 20.613 22.2436 22.2878C20.0709 23.722 18.4593 25.9291 17.5831 28.6704C16.707 31.466 16.6423 34.4528 17.3966 37.2837C18.1645 40.0639 19.6817 42.1743 21.668 43.2262C25.2716 45.1341 27.1494 46.3039 28.0703 47.7919C29.0273 49.3379 28.8837 51.0456 28.6459 53.8739C28.6088 54.3134 28.569 54.7855 28.5304 55.2927C27.9863 62.4067 29.0146 71.6714 33.5322 76.3391C33.6914 76.4528 33.8696 76.5371 34.0585 76.588C34.2692 76.6721 34.4987 76.6976 34.7226 76.6619C34.9466 76.6261 35.1568 76.5304 35.3308 76.385C35.5048 76.2395 35.6362 76.0496 35.7111 75.8355C35.7859 75.6214 35.8015 75.391 35.756 75.1688C35.7527 75.1465 35.7492 75.1229 35.7467 75.0997Z" fill="#D4E1F4"/>
<path d="M5.15709 60.9483C6.49834 60.0996 8.07109 59.6909 9.65582 59.7791C11.2406 59.8674 12.7582 60.4482 13.997 61.4405C16.0009 63.0367 18.5522 63.7809 21.1001 63.5122C23.648 63.2435 25.988 61.9836 27.6149 60.0045L29.5569 57.6279C29.6465 57.5209 29.714 57.3972 29.7554 57.2639C29.7968 57.1307 29.8113 56.9905 29.7982 56.8516C29.785 56.7126 29.7444 56.5777 29.6787 56.4546C29.613 56.3314 29.5236 56.2226 29.4155 56.1343C29.3074 56.046 29.1829 55.98 29.0491 55.9402C28.9154 55.9003 28.7751 55.8874 28.6363 55.9023C28.4975 55.9171 28.3631 55.9593 28.2407 56.0264C28.1184 56.0935 28.0106 56.1843 27.9236 56.2934L25.9815 58.6698C24.7072 60.2197 22.8746 61.2064 20.8792 61.4168C18.8838 61.6273 16.8856 61.0447 15.316 59.7948C13.7344 58.5277 11.7967 57.786 9.77325 57.6733C7.74983 57.5605 5.74168 58.0823 4.0291 59.1659L2.24861 60.293C2.01538 60.4439 1.85113 60.6808 1.79156 60.9522C1.73199 61.2236 1.7819 61.5075 1.93046 61.7423C2.07902 61.9771 2.31422 62.1438 2.58496 62.2061C2.8557 62.2685 3.14012 62.2215 3.37643 62.0754L5.15709 60.9483Z" fill="url(#paint0_linear)"/>
<path d="M87.4011 57.5381L81.9392 56.4082C79.518 55.9038 76.9956 56.3446 74.889 57.6403C73.7388 58.344 72.4226 58.73 71.0746 58.7591C69.7265 58.7881 68.3949 58.4592 67.2154 57.8057L64.0338 56.0391C63.9127 55.9718 63.7795 55.9291 63.6419 55.9134C63.5043 55.8976 63.365 55.9091 63.2318 55.9472C63.0986 55.9852 62.9743 56.0492 62.8658 56.1353C62.7573 56.2215 62.6669 56.3282 62.5997 56.4493C62.5325 56.5704 62.4897 56.7035 62.474 56.8411C62.4582 56.9787 62.4697 57.1181 62.5078 57.2513C62.5459 57.3844 62.6098 57.5088 62.696 57.6173C62.7821 57.7257 62.8888 57.8161 63.0099 57.8834L66.1915 59.6498C67.6977 60.4846 69.3984 60.9049 71.1201 60.8678C72.8417 60.8307 74.5228 60.3377 75.9917 59.4389C77.641 58.4246 79.6157 58.0795 81.5112 58.4742L86.9733 59.6041C87.2462 59.6583 87.5295 59.6024 87.7614 59.4486C87.9934 59.2949 88.1551 59.0557 88.2115 58.7832C88.2678 58.5107 88.2142 58.2269 88.0623 57.9938C87.9104 57.7607 87.6725 57.597 87.4004 57.5385L87.4011 57.5381Z" fill="url(#paint1_linear)"/>
<path d="M21.5369 46.12C24.9191 47.9107 26.7689 49.0338 27.4925 50.2026C28.1292 51.2312 28.0501 52.5338 27.8105 55.382C27.7715 55.8467 27.7295 56.3449 27.6885 56.8807C27.3969 60.6965 26.9503 73.6699 33.4623 80.3979C33.9571 80.904 34.6008 81.2386 35.2994 81.3526C35.998 81.4666 36.7147 81.3541 37.3448 81.0316C37.9748 80.7091 38.4852 80.1935 38.8012 79.5601C39.1172 78.9268 39.2223 78.2089 39.1011 77.5116C39.018 76.648 37.626 60.9695 44.2969 52.8495C44.5294 52.5745 44.8194 52.3538 45.1465 52.203C45.4736 52.0522 45.8297 51.975 46.1899 51.9768C46.55 51.9786 46.9054 52.0594 47.2309 52.2134C47.5565 52.3674 47.8443 52.591 48.0741 52.8683C54.6131 61.0274 53.2435 76.6466 53.1612 77.5128C53.0761 77.983 53.0962 78.4662 53.2199 78.9277C53.3436 79.3892 53.5678 79.8176 53.8766 80.1822C54.1855 80.5468 54.5711 80.8386 55.006 81.0365C55.4408 81.2345 55.9141 81.3338 56.3919 81.3273C56.7642 81.3272 57.1339 81.2653 57.4859 81.1439C57.9761 81.0009 58.4261 80.7455 58.8001 80.3979C65.3115 73.6699 64.8656 60.6972 64.5738 56.8807C64.533 56.3475 64.4913 55.8515 64.4525 55.3886C64.2131 52.5392 64.134 51.2362 64.7707 50.2077C65.4931 49.0407 67.3432 47.9153 70.7263 46.1195C72.9412 44.9442 74.6638 42.7721 75.709 39.838C76.6689 37.1432 76.9636 33.9915 76.5387 30.9631C75.6125 24.3618 71.6602 19.6991 65.9667 18.4904C65.693 18.4323 65.4075 18.4853 65.173 18.6377C64.9384 18.7901 64.774 19.0295 64.7159 19.3031C64.6578 19.5768 64.7108 19.8623 64.8632 20.0968C65.0156 20.3314 65.255 20.4958 65.5286 20.5539C70.3171 21.5703 73.6522 25.5712 74.4499 31.2562C75.2442 36.9181 73.2623 42.3854 69.7375 44.2564C65.8614 46.3131 63.9654 47.501 62.9772 49.0974C61.9469 50.7617 62.0983 52.5696 62.3505 55.5651C62.389 56.0232 62.4301 56.5143 62.4706 57.0417C63.0369 64.4481 61.9719 74.0877 57.2933 78.9224C57.1417 79.0236 56.975 79.1003 56.7995 79.1495C56.5232 79.2534 56.2179 79.25 55.9439 79.1401C55.67 79.0301 55.4471 78.8215 55.3193 78.5554C55.2239 78.3348 55.1973 78.0905 55.243 77.8545C55.2484 77.8259 55.2526 77.7969 55.2556 77.7677C55.3286 77.0702 56.9581 60.5802 49.7201 51.549C49.294 51.0268 48.7577 50.6052 48.1496 50.3145C47.5415 50.0237 46.8767 49.8711 46.2026 49.8674C45.5286 49.8637 44.8621 50.0091 44.2509 50.2932C43.6397 50.5773 43.0988 50.993 42.667 51.5106C35.2858 60.4951 36.9331 77.0674 37.0069 77.7684C37.0099 77.7974 37.0141 77.8261 37.0195 77.8545C37.065 78.0905 37.0385 78.3347 36.9433 78.5554C36.8153 78.8215 36.5924 79.0301 36.3183 79.14C36.0443 79.2499 35.739 79.2533 35.4626 79.1493C35.2917 79.099 35.1285 79.0255 34.9777 78.9307C30.2903 74.0874 29.2252 64.4477 29.7921 57.0413C29.8327 56.5114 29.8742 56.0185 29.9129 55.5584C30.1648 52.5642 30.3172 50.7566 29.2864 49.0922C28.2964 47.4925 26.4002 46.3076 22.5243 44.2557C18.3533 42.0475 16.4333 35.1652 18.3314 29.2264C19.2862 26.2392 22.6262 19.4393 32.9982 20.8153C36.3908 21.2653 40.6501 23.725 43.4684 25.3525C44.3187 25.8435 45.0529 26.2666 45.5982 26.5385C51.0931 29.2714 54.216 29.1021 56.0869 28.7372C56.2228 28.7107 56.3522 28.6576 56.4677 28.5811C56.5831 28.5045 56.6823 28.406 56.7597 28.2911C56.837 28.1762 56.891 28.0472 56.9185 27.9114C56.946 27.7757 56.9465 27.6358 56.9199 27.4999C56.8934 27.3639 56.8403 27.2346 56.7638 27.1191C56.6872 27.0037 56.5887 26.9045 56.4738 26.8271C56.3589 26.7498 56.2299 26.6958 56.0941 26.6683C55.9584 26.6408 55.8185 26.6403 55.6826 26.6669C53.6514 27.0629 51.3473 26.7113 48.5392 25.5614C49.6019 25.0252 50.6365 24.4352 51.6391 23.7935C53.3618 22.7255 54.8494 21.803 57.77 21.0067C59.057 20.6477 60.3761 20.4161 61.7084 20.3152C61.8466 20.3057 61.9815 20.2691 62.1055 20.2074C62.2296 20.1458 62.3403 20.0603 62.4313 19.9559C62.5223 19.8515 62.5918 19.7302 62.6359 19.5989C62.68 19.4676 62.6978 19.3289 62.6884 19.1907C62.6789 19.0525 62.6423 18.9176 62.5806 18.7935C62.519 18.6695 62.4335 18.5588 62.3291 18.4678C62.2247 18.3768 62.1033 18.3073 61.9721 18.2632C61.8408 18.2191 61.7021 18.2012 61.5639 18.2107C60.0929 18.3212 58.6363 18.576 57.2152 18.9717C53.9984 19.8485 52.3125 20.894 50.5276 22.0009C49.1483 22.898 47.6935 23.6736 46.1799 24.3188C46.131 24.3392 46.0834 24.362 46.0368 24.3865C45.6109 24.1539 45.0953 23.8563 44.5229 23.5251C41.5603 21.8142 37.083 19.2287 33.2752 18.7237C24.9843 17.6236 18.6467 21.3101 16.3218 28.5834C14.0947 35.5524 16.4341 43.4179 21.5369 46.12Z" fill="url(#paint2_linear)"/>
<path d="M35.5396 49.8266C34.7897 50.8102 34.1841 51.8959 33.741 53.0508C33.7053 53.1217 33.6777 53.1965 33.6589 53.2736C33.0246 55.0108 32.7695 56.8636 32.911 58.7076L34.4004 80.1137C34.4189 80.3799 34.5376 80.6292 34.7327 80.8114C34.9277 80.9935 35.1845 81.095 35.4514 81.0953C35.476 81.0953 35.5008 81.0944 35.5257 81.0926C35.8047 81.0732 36.0646 80.9438 36.2481 80.7328C36.4317 80.5218 36.524 80.2466 36.5047 79.9676L35.3672 63.6101C35.4657 62.1721 35.7028 60.747 36.0752 59.3546C36.5962 57.4604 37.597 55.0859 39.4049 54.5322C39.5373 54.4917 39.6605 54.4254 39.7673 54.3373C39.8741 54.2491 39.9625 54.1408 40.0275 54.0184C40.0924 53.8961 40.1327 53.7622 40.1459 53.6243C40.1591 53.4864 40.145 53.3473 40.1044 53.2148C40.0638 53.0824 39.9976 52.9593 39.9094 52.8524C39.8213 52.7456 39.7129 52.6572 39.5906 52.5922C39.4682 52.5273 39.3343 52.4871 39.1964 52.4739C39.0586 52.4607 38.9194 52.4748 38.787 52.5153C37.113 53.0281 35.9434 54.3776 35.1265 55.965C35.237 55.2881 35.411 54.6231 35.6461 53.9787C36.2757 53.0015 36.8434 51.9858 37.3461 50.9377C37.4848 50.763 37.6274 50.5909 37.7775 50.4246L38.4861 49.6392C39.473 48.5452 40.6722 47.6635 42.0107 47.0477C43.3493 46.4319 44.7991 46.095 46.272 46.0573C47.7449 46.0197 49.21 46.2822 50.5783 46.8288C51.9465 47.3755 53.1891 48.1948 54.2306 49.237C55.3055 50.3144 56.1423 51.6052 56.6871 53.0262C57.2319 54.4472 57.4725 55.9666 57.3935 57.4864L57.371 57.9691C56.6111 56.8418 55.5272 55.9691 53.9822 55.7065C53.8454 55.6825 53.7052 55.6859 53.5697 55.7163C53.4341 55.7468 53.306 55.8037 53.1925 55.8838C53.079 55.9639 52.9825 56.0656 52.9084 56.1831C52.8343 56.3006 52.7842 56.4316 52.7609 56.5686C52.7377 56.7055 52.7416 56.8457 52.7727 56.9811C52.8037 57.1165 52.8612 57.2444 52.9418 57.3575C53.0224 57.4706 53.1246 57.5667 53.2425 57.6402C53.3603 57.7138 53.4915 57.7633 53.6286 57.786C57.2321 58.3989 57.0212 65.4901 57.0171 65.5731L56.3462 79.9906C56.3337 80.2698 56.4324 80.5424 56.6208 80.7488C56.8091 80.9551 57.0717 81.0783 57.3507 81.0913C57.6298 81.1043 57.9027 81.006 58.1094 80.8181C58.3161 80.6301 58.4398 80.3678 58.4532 80.0887L58.9235 69.9813C59.026 69.8448 59.0936 69.6853 59.1203 69.5167L67.8797 12.6023C67.9471 12.1491 67.9225 11.6871 67.8074 11.2436C67.6922 10.8002 67.489 10.3846 67.2097 10.0214C66.9303 9.65831 66.5807 9.35519 66.1817 9.13017C65.7826 8.90514 65.3424 8.76283 64.8871 8.71172C64.4318 8.66061 63.971 8.70175 63.5319 8.83269C63.0929 8.96363 62.6848 9.18168 62.3319 9.47382C61.9791 9.76597 61.6887 10.1262 61.4781 10.5331C61.2675 10.9399 61.1411 11.385 61.1063 11.8418L58.2938 51.4278C57.4849 49.6955 56.3032 48.1635 54.833 46.9413C53.3629 45.7191 51.6408 44.837 49.79 44.3582C47.9391 43.8793 46.0053 43.8154 44.1269 44.1712C42.2485 44.5269 40.472 45.2935 38.9245 46.4161C39.3669 44.1413 39.16 41.861 37.3841 40.3574C37.2785 40.2668 37.1561 40.198 37.0239 40.1549C36.8916 40.1118 36.7521 40.0953 36.6135 40.1064C36.4748 40.1174 36.3397 40.1558 36.2159 40.2192C36.0921 40.2827 35.9821 40.37 35.8923 40.4762C35.8024 40.5824 35.7344 40.7053 35.6922 40.8378C35.65 40.9704 35.6344 41.1099 35.6464 41.2485C35.6584 41.3871 35.6977 41.522 35.762 41.6453C35.8263 41.7686 35.9143 41.878 36.0211 41.9672C37.6233 43.3239 37.0167 46.1146 36.2257 48.2169C36.0149 48.7773 35.779 49.3203 35.5396 49.8266ZM62.1234 27.2914L63.4593 27.4579L60.9564 43.7196L62.1234 27.2914ZM64.7016 19.385L62.7028 19.136L62.765 18.2601L64.835 18.518L64.7016 19.385ZM64.3806 21.4708L64.24 22.3785L62.4871 22.1602L62.5521 21.2431L64.3806 21.4708ZM63.9199 24.4643L63.7801 25.3721L62.2732 25.1843L62.3382 24.2673L63.9199 24.4643ZM64.4307 10.7841C64.4571 10.7824 64.4834 10.7817 64.5098 10.7817C64.6974 10.7817 64.8827 10.8224 65.0531 10.9008C65.2235 10.9792 65.375 11.0935 65.4971 11.236C65.6191 11.3784 65.709 11.5455 65.7604 11.7259C65.8118 11.9063 65.8236 12.0957 65.7949 12.2811L65.156 16.4324L62.9148 16.1543L63.2109 11.9912C63.234 11.6766 63.3703 11.381 63.5946 11.1592C63.8188 10.9373 64.1159 10.8042 64.4307 10.7845V10.7841Z" fill="url(#paint3_linear)"/>
<defs>
<linearGradient id="paint0_linear" x1="15.7849" y1="55.8963" x2="15.7849" y2="63.566" gradientUnits="userSpaceOnUse">
<stop stop-color="#8888D3"/>
<stop offset="1" stop-color="#5E60A3"/>
</linearGradient>
<linearGradient id="paint1_linear" x1="75.3502" y1="55.9065" x2="75.3502" y2="60.8701" gradientUnits="userSpaceOnUse">
<stop stop-color="#8888D3"/>
<stop offset="1" stop-color="#5E60A3"/>
</linearGradient>
<linearGradient id="paint2_linear" x1="46.1036" y1="18.2083" x2="46.1036" y2="81.3959" gradientUnits="userSpaceOnUse">
<stop stop-color="#8888D3"/>
<stop offset="1" stop-color="#5E60A3"/>
</linearGradient>
<linearGradient id="paint3_linear" x1="50.3949" y1="8.69043" x2="50.3949" y2="81.0953" gradientUnits="userSpaceOnUse">
<stop stop-color="#8888D3"/>
<stop offset="1" stop-color="#5E60A3"/>
</linearGradient>
</defs>
</svg>

<svg width="90" height="90" fill="none" xmlns="http://www.w3.org/2000/svg"><path d="M55.392 20.707c-2.815.767-4.246 1.654-5.903 2.682a31.703 31.703 0 01-3.268 1.837c1.662.709 3.144 1.133 4.497 1.287a33.061 33.061 0 003.01-1.711c1.657-1.027 3.089-1.915 5.903-2.682.255-.07.508-.134.759-.193l.135-1.908a18.004 18.004 0 00-5.133.688zM35.747 75.1l-.015-.153c-2.784-5.009-3.411-12.359-2.962-18.241.04-.507.079-.979.116-1.419.238-2.83.381-4.537-.576-6.082-.92-1.488-2.798-2.658-6.402-4.566-1.986-1.052-3.504-3.162-4.271-5.942a15.474 15.474 0 01.186-8.614c.876-2.74 2.488-4.948 4.66-6.382 2.538-1.675 5.745-2.27 9.533-1.767.134.017.27.04.404.063-1.58-.712-3.192-1.284-4.644-1.476-3.788-.503-6.995.092-9.532 1.767-2.173 1.434-3.785 3.641-4.66 6.382a15.477 15.477 0 00-.187 8.614c.768 2.78 2.285 4.89 4.271 5.942 3.604 1.908 5.481 3.078 6.402 4.566.957 1.546.814 3.254.576 6.082-.037.44-.077.911-.116 1.419-.544 7.114.485 16.378 5.002 21.046.16.114.338.198.527.249a1.257 1.257 0 001.697-1.42l-.01-.068z" fill="#D4E1F4"/><path d="M5.157 60.948a7.621 7.621 0 018.84.492 9.758 9.758 0 0013.618-1.435l1.942-2.377a1.054 1.054 0 10-1.633-1.335l-1.942 2.377a7.643 7.643 0 01-10.666 1.125 9.73 9.73 0 00-11.287-.63l-1.78 1.128a1.054 1.054 0 001.127 1.782l1.781-1.127z" fill="url(#paint0_linear)"/><path d="M87.401 57.538l-5.462-1.13a9.686 9.686 0 00-7.05 1.232 7.624 7.624 0 01-7.674.166l-3.181-1.767a1.052 1.052 0 00-1.434.41 1.054 1.054 0 00.41 1.434l3.182 1.767a9.734 9.734 0 009.8-.211 7.585 7.585 0 015.52-.965l5.461 1.13a1.054 1.054 0 00.427-2.066h.001z" fill="url(#paint1_linear)"/><path d="M21.537 46.12c3.382 1.79 5.232 2.914 5.956 4.083.636 1.028.557 2.33.318 5.179-.04.465-.081.963-.122 1.499-.292 3.816-.739 16.789 5.773 23.517a3.316 3.316 0 005.64-2.886c-.084-.864-1.476-16.543 5.195-24.663a2.463 2.463 0 013.777.02c6.54 8.158 5.17 23.778 5.087 24.644a3.238 3.238 0 003.23 3.814c.373 0 .743-.062 1.095-.183a3.28 3.28 0 001.314-.746c6.511-6.728 6.066-19.7 5.774-23.517-.041-.534-.083-1.03-.121-1.492-.24-2.85-.319-4.153.318-5.181.722-1.167 2.572-2.293 5.955-4.088 2.215-1.176 3.938-3.348 4.983-6.282.96-2.695 1.255-5.846.83-8.875-.927-6.601-4.879-11.264-10.572-12.473a1.055 1.055 0 10-.438 2.064c4.788 1.016 8.123 5.017 8.92 10.702.795 5.662-1.187 11.13-4.712 13-3.876 2.057-5.772 3.245-6.76 4.841-1.03 1.665-.879 3.473-.627 6.468.039.458.08.95.12 1.477.567 7.406-.498 17.046-5.177 21.88a1.731 1.731 0 01-.493.228 1.181 1.181 0 01-1.48-.595 1.194 1.194 0 01-.077-.7c.005-.03.01-.058.013-.087.073-.698 1.702-17.188-5.536-26.219a4.572 4.572 0 00-7.053-.038c-7.381 8.984-5.734 25.556-5.66 26.257.003.03.007.058.013.087a1.2 1.2 0 01-.077.7 1.182 1.182 0 01-1.48.594 1.94 1.94 0 01-.485-.218c-4.688-4.844-5.753-14.483-5.186-21.89.04-.53.082-1.022.12-1.483.253-2.994.405-4.801-.626-6.466-.99-1.6-2.886-2.784-6.762-4.836-4.17-2.209-6.09-9.09-4.193-15.03.955-2.987 4.295-9.787 14.667-8.41 3.393.45 7.652 2.909 10.47 4.537.85.49 1.585.914 2.13 1.185 5.495 2.733 8.618 2.564 10.489 2.2a1.056 1.056 0 10-.404-2.071c-2.032.396-4.336.044-7.144-1.106a34.984 34.984 0 003.1-1.767c1.723-1.069 3.21-1.991 6.131-2.787a20.388 20.388 0 013.938-.692 1.053 1.053 0 00.621-1.847 1.055 1.055 0 00-.765-.257c-1.471.11-2.928.365-4.349.76-3.217.878-4.903 1.923-6.687 3.03a28.4 28.4 0 01-4.348 2.318c-.049.02-.097.043-.143.068a75.9 75.9 0 01-1.514-.862c-2.963-1.71-7.44-4.296-11.248-4.801-8.29-1.1-14.628 2.586-16.953 9.86-2.227 6.968.112 14.834 5.215 17.536z" fill="url(#paint2_linear)"/><path d="M35.54 49.827a12.977 12.977 0 00-1.799 3.224c-.036.07-.063.145-.082.223a12.954 12.954 0 00-.748 5.434l1.49 21.406a1.055 1.055 0 002.104-.146L35.367 63.61c.099-1.438.336-2.863.708-4.255.521-1.895 1.522-4.27 3.33-4.823a1.054 1.054 0 10-.618-2.017c-1.674.513-2.844 1.863-3.66 3.45.11-.677.284-1.342.52-1.986a27.86 27.86 0 001.7-3.041c.138-.175.28-.347.43-.513l.71-.786a10.86 10.86 0 0118.907 7.847l-.023.483c-.76-1.127-1.844-2-3.389-2.263a1.053 1.053 0 00-1.04 1.651 1.054 1.054 0 00.687.429c3.603.613 3.392 7.704 3.388 7.787l-.67 14.418a1.054 1.054 0 002.106.098l.47-10.108c.103-.136.17-.296.197-.464l8.76-56.915a3.41 3.41 0 10-6.774-.76l-2.812 39.586a12.97 12.97 0 00-19.37-5.012c.443-2.275.236-4.555-1.54-6.059a1.056 1.056 0 10-1.363 1.61c1.602 1.357.996 4.148.205 6.25a21.48 21.48 0 01-.686 1.61zM62.123 27.29l1.336.167-2.503 16.262 1.167-16.429zm2.579-7.906l-2-.249.063-.876 2.07.258-.133.867zm-.321 2.086l-.141.907-1.753-.218.065-.917 1.829.228zm-.461 2.993l-.14.908-1.507-.188.065-.917 1.582.197zm.51-13.68c.027-.002.053-.002.08-.002a1.3 1.3 0 011.285 1.5l-.639 4.15-2.241-.278.296-4.163a1.304 1.304 0 011.22-1.207z" fill="url(#paint3_linear)"/><defs><linearGradient id="paint0_linear" x1="15.785" y1="55.896" x2="15.785" y2="63.566" gradientUnits="userSpaceOnUse"><stop stop-color="#8888D3"/><stop offset="1" stop-color="#5E60A3"/></linearGradient><linearGradient id="paint1_linear" x1="75.35" y1="55.907" x2="75.35" y2="60.87" gradientUnits="userSpaceOnUse"><stop stop-color="#8888D3"/><stop offset="1" stop-color="#5E60A3"/></linearGradient><linearGradient id="paint2_linear" x1="46.104" y1="18.208" x2="46.104" y2="81.396" gradientUnits="userSpaceOnUse"><stop stop-color="#8888D3"/><stop offset="1" stop-color="#5E60A3"/></linearGradient><linearGradient id="paint3_linear" x1="50.395" y1="8.69" x2="50.395" y2="81.095" gradientUnits="userSpaceOnUse"><stop stop-color="#8888D3"/><stop offset="1" stop-color="#5E60A3"/></linearGradient></defs></svg>
